X:15
T:Dick Gossip's
R:Reel
O:Ireland
Z:Richard Robinson's Tune book
M:4/4
K:D
F2AF GFED | F2AF GFED | EDEF GFED | EDEF GFED |
F2AF GFED | F2AF GFED | cdef gece |1 eddc d4 :|2 fddc d2ef|
|: gB (3BBB gBaB | gB (3BBB gfed | (3cBA eA fAeA | (3cBA ef gfef |
gB (3BBB gBaB | gB (3BBB gfed | cdef gfec | eddc d4 :|
